P3
64 64
255
70 100 150 70 100 150 70 100 150 70 100 150 70 100 150 70 100 150 70 100 150 70 100 150 70 100 150 70 100 150 70 100 150 70 100 150 70 100 150 70 100 150 70 100 150 70 100 150 70 100 150 70 100 150 70 100 150 70 100 150 70 100 150 70 100 150 70 100 150 70 100 150 70 100 150 70 100 150 70 100 150 70 100 150 70 100 150 70 100 150 70 100 150 70 100 150 70 100 150 70 100 150 70 100 150 70 100 150 70 100 150 70 100 150 70 100 150 70 100 150 70 100 150 70 100 150 70 100 150 70 100 150 70 100 150 70 100 150 70 100 150 70 100 150 70 100 150 70 100 150 70 100 150 70 100 150 70 100 150 70 100 150 70 100 150 70 100 150 70 100 150 70 100 150 70 100 150 70 100 150 70 100 150 70 100 150 70 100 150 70 100 150
70 100 150 70 100 150 70 100 150 70 100 150 70 100 150 70 100 150 70 100 150 70 100 150 70 100 150 70 100 150 70 100 150 70 100 150 70 100 150 70 100 150 70 100 150 70 100 150 70 100 150 70 100 150 70 100 150 70 100 150 70 100 150 70 100 150 70 100 150 70 100 150 70 100 150 70 100 150 70 100 150 70 100 150 70 100 150 70 100 150 70 100 150 70 100 150 70 100 150 70 100 150 70 100 150 70 100 150 70 100 150 70 100 150 70 100 150 70 100 150 70 100 150 70 100 150 70 100 150 70 100 150 70 100 150 70 100 150 70 100 150 70 100 150 70 100 150 70 100 150 70 100 150 70 100 150 70 100 150 70 100 150 70 100 150 70 100 150 70 100 150 70 100 150 70 100 150 70 100 150 70 100 150 70 100 150 70 100 150 70 100 150
70 100 150 70 100 150 70 100 150 70 100 150 70 100 150 70 100 150 70 100 150 70 100 150 70 100 150 70 100 150 70 100 150 70 100 150 70 100 150 70 100 150 70 100 150 70 100 150 70 100 150 70 100 150 70 100 150 70 100 150 70 100 150 70 100 150 70 100 150 70 100 150 70 100 150 70 100 150 70 100 150 70 100 150 70 100 150 70 100 150 70 100 150 70 100 150 70 100 150 70 100 150 70 100 150 70 100 150 70 100 150 70 100 150 70 100 150 70 100 150 70 100 150 70 100 150 70 100 150 70 100 150 70 100 150 70 100 150 70 100 150 70 100 150 70 100 150 70 100 150 70 100 150 70 100 150 70 100 150 70 100 150 70 100 150 70 100 150 70 100 150 70 100 150 70 100 150 70 100 150 70 100 150 70 100 150 70 100 150 70 100 150
70 100 150 70 100 150 70 100 150 70 100 150 70 100 150 70 100 150 70 100 150 70 100 150 70 100 150 70 100 150 70 100 150 70 100 150 70 100 150 70 100 150 70 100 150 70 100 150 70 100 150 70 100 150 70 100 150 70 100 150 70 100 150 70 100 150 70 100 150 70 100 150 70 100 150 70 100 150 70 100 150 70 100 150 70 100 150 70 100 150 70 100 150 70 100 150 70 100 150 70 100 150 70 100 150 70 100 150 70 100 150 70 100 150 70 100 150 70 100 150 70 100 150 70 100 150 70 100 150 70 100 150 70 100 150 70 100 150 70 100 150 70 100 150 70 100 150 70 100 150 70 100 150 70 100 150 70 100 150 70 100 150 70 100 150 70 100 150 70 100 150 70 100 150 70 100 150 70 100 150 70 100 150 70 100 150 70 100 150 70 100 150
70 100 150 70 100 150 70 100 150 70 100 150 70 100 150 70 100 150 70 100 150 70 100 150 70 100 150 70 100 150 70 100 150 70 100 150 70 100 150 70 100 150 70 100 150 70 100 150 70 100 150 70 100 150 70 100 150 70 100 150 70 100 150 70 100 150 70 100 150 70 100 150 70 100 150 70 100 150 70 100 150 70 100 150 70 100 150 70 100 150 70 100 150 70 100 150 70 100 150 70 100 150 70 100 150 70 100 150 70 100 150 70 100 150 70 100 150 70 100 150 70 100 150 70 100 150 70 100 150 70 100 150 70 100 150 70 100 150 70 100 150 70 100 150 70 100 150 70 100 150 70 100 150 70 100 150 70 100 150 70 100 150 70 100 150 70 100 150 70 100 150 70 100 150 70 100 150 70 100 150 70 100 150 70 100 150 70 100 150 70 100 150
70 100 150 70 100 150 70 100 150 70 100 150 70 100 150 70 100 150 70 100 150 70 100 150 70 100 150 70 100 150 70 100 150 70 100 150 70 100 150 70 100 150 70 100 150 70 100 150 70 100 150 70 100 150 70 100 150 70 100 150 70 100 150 70 100 150 70 100 150 70 100 150 70 100 150 70 100 150 70 100 150 70 100 150 70 100 150 70 100 150 70 100 150 70 100 150 70 100 150 70 100 150 70 100 150 70 100 150 70 100 150 70 100 150 70 100 150 70 100 150 70 100 150 70 100 150 70 100 150 70 100 150 70 100 150 70 100 150 70 100 150 70 100 150 70 100 150 70 100 150 70 100 150 70 100 150 70 100 150 70 100 150 70 100 150 70 100 150 70 100 150 70 100 150 70 100 150 70 100 150 70 100 150 70 100 150 70 100 150 70 100 150
70 100 150 70 100 150 70 100 150 70 100 150 70 100 150 70 100 150 70 100 150 70 100 150 70 100 150 70 100 150 70 100 150 70 100 150 70 100 150 70 100 150 70 100 150 70 100 150 70 100 150 70 100 150 70 100 150 70 100 150 70 100 150 70 100 150 70 100 150 70 100 150 70 100 150 70 100 150 70 100 150 70 100 150 70 100 150 70 100 150 70 100 150 70 100 150 70 100 150 70 100 150 70 100 150 70 100 150 70 100 150 70 100 150 70 100 150 70 100 150 70 100 150 70 100 150 70 100 150 70 100 150 70 100 150 70 100 150 70 100 150 70 100 150 70 100 150 70 100 150 70 100 150 70 100 150 70 100 150 70 100 150 70 100 150 70 100 150 70 100 150 70 100 150 70 100 150 70 100 150 70 100 150 70 100 150 70 100 150 70 100 150
70 100 150 70 100 150 70 100 150 70 100 150 70 100 150 70 100 150 70 100 150 70 100 150 70 100 150 70 100 150 70 100 150 70 100 150 70 100 150 70 100 150 70 100 150 70 100 150 70 100 150 70 100 150 70 100 150 70 100 150 70 100 150 70 100 150 70 100 150 70 100 150 70 100 150 70 100 150 70 100 150 70 100 150 70 100 150 70 100 150 70 100 150 70 100 150 70 100 150 70 100 150 70 100 150 70 100 150 70 100 150 70 100 150 70 100 150 70 100 150 70 100 150 70 100 150 70 100 150 70 100 150 70 100 150 70 100 150 70 100 150 70 100 150 70 100 150 70 100 150 70 100 150 70 100 150 70 100 150 70 100 150 70 100 150 70 100 150 70 100 150 70 100 150 70 100 150 70 100 150 70 100 150 70 100 150 70 100 150 70 100 150
29 34 43 29 34 43 29 34 43 29 34 43 29 34 43 29 34 43 29 34 43 29 34 43 29 34 43 29 34 43 29 34 43 29 34 43 29 34 43 29 34 43 29 34 43 29 34 43 29 34 43 29 34 43 29 34 43 29 34 43 29 34 43 29 34 43 29 34 43 29 34 43 29 34 43 29 34 43 29 34 43 29 34 43 29 34 43 29 34 43 29 34 43 29 34 43 20 46 92 29 34 43 29 34 43 29 34 43 29 34 43 29 34 43 29 34 43 29 34 43 29 34 43 29 34 43 29 34 43 29 34 43 29 34 43 29 34 43 29 34 43 29 34 43 29 34 43 29 34 43 29 34 43 29 34 43 29 34 43 29 34 43 29 34 43 29 34 43 29 34 43 29 34 43 29 34 43 29 34 43 29 34 43 29 34 43 29 34 43 29 34 43
29 34 43 29 34 43 29 34 43 29 34 43 29 34 43 29 34 43 29 34 43 29 34 43 29 34 43 29 34 43 29 34 43 29 34 43 29 34 43 29 34 43 29 34 43 29 34 43 29 34 43 29 34 43 29 34 43 29 34 43 29 34 43 29 34 43 29 34 43 29 34 43 29 34 43 29 34 43 20 46 92 20 46 92 20 46 92 20 46 92 20 46 92 20 46 92 20 46 92 20 46 92 20 46 92 20 46 92 20 46 92 20 46 92 20 46 92 29 34 43 29 34 43 29 34 43 29 34 43 29 34 43 29 34 43 29 34 43 29 34 43 29 34 43 29 34 43 29 34 43 29 34 43 29 34 43 29 34 43 29 34 43 29 34 43 29 34 43 29 34 43 29 34 43 29 34 43 29 34 43 29 34 43 29 34 43 29 34 43 29 34 43
29 34 43 29 34 43 29 34 43 29 34 43 29 34 43 29 34 43 29 34 43 29 34 43 29 34 43 29 34 43 29 34 43 29 34 43 29 34 43 29 34 43 29 34 43 29 34 43 29 34 43 29 34 43 29 34 43 29 34 43 29 34 43 29 34 43 29 34 43 29 34 43 20 46 92 20 46 92 20 46 92 20 46 92 20 46 92 20 46 92 20 46 92 20 46 92 20 46 92 20 46 92 20 46 92 20 46 92 20 46 92 20 46 92 20 46 92 20 46 92 20 46 92 29 34 43 29 34 43 29 34 43 29 34 43 29 34 43 29 34 43 29 34 43 29 34 43 29 34 43 29 34 43 29 34 43 29 34 43 29 34 43 29 34 43 29 34 43 29 34 43 29 34 43 29 34 43 29 34 43 29 34 43 29 34 43 29 34 43 29 34 43
29 34 43 29 34 43 29 34 43 29 34 43 29 34 43 29 34 43 29 34 43 29 34 43 29 34 43 29 34 43 29 34 43 29 34 43 29 34 43 29 34 43 29 34 43 29 34 43 29 34 43 29 34 43 29 34 43 29 34 43 29 34 43 29 34 43 20 46 92 20 46 92 20 46 92 20 46 92 20 46 92 20 46 92 20 46 92 20 46 92 20 46 92 20 46 92 20 46 92 20 46 92 20 46 92 20 46 92 20 46 92 20 46 92 20 46 92 20 46 92 20 46 92 20 46 92 20 46 92 29 34 43 29 34 43 29 34 43 29 34 43 29 34 43 29 34 43 29 34 43 29 34 43 29 34 43 29 34 43 29 34 43 29 34 43 29 34 43 29 34 43 29 34 43 29 34 43 29 34 43 29 34 43 29 34 43 29 34 43 29 34 43
29 34 43 29 34 43 29 34 43 29 34 43 29 34 43 29 34 43 29 34 43 29 34 43 29 34 43 29 34 43 29 34 43 29 34 43 29 34 43 29 34 43 29 34 43 29 34 43 29 34 43 29 34 43 29 34 43 29 34 43 29 34 43 20 46 92 20 46 92 20 46 92 20 46 92 20 46 92 20 46 92 20 46 92 20 46 92 20 46 92 20 46 92 20 46 92 20 46 92 20 46 92 20 46 92 20 46 92 20 46 92 20 46 92 20 46 92 20 46 92 20 46 92 20 46 92 20 46 92 20 46 92 29 34 43 29 34 43 29 34 43 29 34 43 29 34 43 29 34 43 29 34 43 29 34 43 29 34 43 29 34 43 29 34 43 29 34 43 29 34 43 29 34 43 29 34 43 29 34 43 29 34 43 29 34 43 29 34 43 29 34 43
29 34 43 29 34 43 29 34 43 29 34 43 29 34 43 29 34 43 29 34 43 29 34 43 29 34 43 29 34 43 29 34 43 29 34 43 29 34 43 29 34 43 29 34 43 29 34 43 29 34 43 29 34 43 29 34 43 29 34 43 20 46 92 20 46 92 20 46 92 20 46 92 20 46 92 20 46 92 20 46 92 20 46 92 20 46 92 20 46 92 20 46 92 20 46 92 20 46 92 20 46 92 20 46 92 20 46 92 20 46 92 20 46 92 20 46 92 20 46 92 20 46 92 20 46 92 20 46 92 20 46 92 20 46 92 29 34 43 29 34 43 29 34 43 29 34 43 29 34 43 29 34 43 29 34 43 29 34 43 29 34 43 29 34 43 29 34 43 29 34 43 29 34 43 29 34 43 29 34 43 29 34 43 29 34 43 29 34 43 29 34 43
29 34 43 29 34 43 29 34 43 29 34 43 29 34 43 29 34 43 29 34 43 29 34 43 29 34 43 29 34 43 29 34 43 29 34 43 29 34 43 29 34 43 29 34 43 29 34 43 29 34 43 29 34 43 29 34 43 20 46 92 20 46 92 20 46 92 20 46 92 20 46 92 20 46 92 20 46 92 20 46 92 20 46 92 20 46 92 20 46 92 20 46 92 20 46 92 20 46 92 20 46 92 20 46 92 20 46 92 20 46 92 20 46 92 20 46 92 20 46 92 20 46 92 20 46 92 20 46 92 20 46 92 20 46 92 20 46 92 29 34 43 29 34 43 29 34 43 29 34 43 29 34 43 29 34 43 29 34 43 29 34 43 29 34 43 29 34 43 29 34 43 29 34 43 29 34 43 29 34 43 29 34 43 29 34 43 29 34 43 29 34 43
29 34 43 29 34 43 29 34 43 29 34 43 29 34 43 29 34 43 29 34 43 29 34 43 29 34 43 29 34 43 29 34 43 29 34 43 29 34 43 29 34 43 29 34 43 29 34 43 29 34 43 29 34 43 20 46 92 20 46 92 20 46 92 20 46 92 20 46 92 20 46 92 20 46 92 20 46 92 20 46 92 20 46 92 20 46 92 20 46 92 20 46 92 20 46 92 20 46 92 20 46 92 20 46 92 20 46 92 20 46 92 20 46 92 20 46 92 20 46 92 20 46 92 20 46 92 20 46 92 20 46 92 20 46 92 20 46 92 20 46 92 29 34 43 29 34 43 29 34 43 29 34 43 29 34 43 29 34 43 29 34 43 29 34 43 29 34 43 29 34 43 29 34 43 29 34 43 29 34 43 29 34 43 29 34 43 29 34 43 29 34 43
29 34 43 29 34 43 29 34 43 29 34 43 29 34 43 29 34 43 29 34 43 29 34 43 29 34 43 29 34 43 29 34 43 29 34 43 29 34 43 29 34 43 29 34 43 29 34 43 29 34 43 20 46 92 20 46 92 20 46 92 20 46 92 20 46 92 20 46 92 20 46 92 20 46 92 20 46 92 20 46 92 20 46 92 20 46 92 20 46 92 20 46 92 20 46 92 20 46 92 20 46 92 20 46 92 20 46 92 20 46 92 20 46 92 20 46 92 20 46 92 20 46 92 20 46 92 20 46 92 20 46 92 20 46 92 20 46 92 20 46 92 20 46 92 29 34 43 29 34 43 29 34 43 29 34 43 29 34 43 29 34 43 29 34 43 29 34 43 29 34 43 29 34 43 29 34 43 29 34 43 29 34 43 29 34 43 29 34 43 29 34 43
29 34 43 29 34 43 29 34 43 29 34 43 29 34 43 29 34 43 29 34 43 29 34 43 29 34 43 29 34 43 29 34 43 29 34 43 29 34 43 29 34 43 29 34 43 29 34 43 29 34 43 20 46 92 20 46 92 20 46 92 20 46 92 20 46 92 20 46 92 20 46 92 20 46 92 20 46 92 20 46 92 20 46 92 20 46 92 20 46 92 20 46 92 20 46 92 20 46 92 20 46 92 20 46 92 20 46 92 20 46 92 20 46 92 20 46 92 20 46 92 20 46 92 20 46 92 20 46 92 20 46 92 20 46 92 20 46 92 20 46 92 20 46 92 29 34 43 29 34 43 29 34 43 29 34 43 29 34 43 29 34 43 29 34 43 29 34 43 29 34 43 29 34 43 29 34 43 29 34 43 29 34 43 29 34 43 29 34 43 29 34 43
29 34 43 29 34 43 29 34 43 29 34 43 29 34 43 29 34 43 29 34 43 29 34 43 29 34 43 29 34 43 29 34 43 29 34 43 29 34 43 29 34 43 29 34 43 29 34 43 193 132 89 20 46 92 20 46 92 20 46 92 20 46 92 20 46 92 20 46 92 20 46 92 20 46 92 20 46 92 20 46 92 20 46 92 20 46 92 20 46 92 20 46 92 20 46 92 20 46 92 20 46 92 20 46 92 20 46 92 20 46 92 20 46 92 20 46 92 20 46 92 20 46 92 20 46 92 20 46 92 20 46 92 20 46 92 20 46 92 20 46 92 20 46 92 193 132 89 29 34 43 29 34 43 29 34 43 29 34 43 29 34 43 29 34 43 29 34 43 29 34 43 29 34 43 29 34 43 29 34 43 29 34 43 29 34 43 29 34 43 29 34 43
29 34 43 29 34 43 29 34 43 29 34 43 29 34 43 29 34 43 29 34 43 29 34 43 29 34 43 29 34 43 29 34 43 29 34 43 29 34 43 29 34 43 29 34 43 29 34 43 193 132 89 20 46 92 20 46 92 20 46 92 20 46 92 20 46 92 20 46 92 20 46 92 20 46 92 20 46 92 20 46 92 20 46 92 20 46 92 20 46 92 20 46 92 20 46 92 20 46 92 20 46 92 20 46 92 20 46 92 20 46 92 20 46 92 20 46 92 20 46 92 20 46 92 20 46 92 20 46 92 20 46 92 20 46 92 20 46 92 20 46 92 20 46 92 193 132 89 29 34 43 29 34 43 29 34 43 29 34 43 29 34 43 29 34 43 29 34 43 29 34 43 29 34 43 29 34 43 29 34 43 29 34 43 29 34 43 29 34 43 29 34 43
29 34 43 29 34 43 29 34 43 29 34 43 29 34 43 29 34 43 29 34 43 29 34 43 29 34 43 29 34 43 29 34 43 29 34 43 29 34 43 29 34 43 29 34 43 193 132 89 193 132 89 193 132 89 193 132 89 193 132 89 193 132 89 193 132 89 193 132 89 193 132 89 193 132 89 193 132 89 35 26 24 35 26 24 35 26 24 193 132 89 193 132 89 193 132 89 193 132 89 193 132 89 193 132 89 193 132 89 35 26 24 35 26 24 35 26 24 193 132 89 193 132 89 193 132 89 193 132 89 193 132 89 193 132 89 193 132 89 193 132 89 193 132 89 193 132 89 193 132 89 29 34 43 29 34 43 29 34 43 29 34 43 29 34 43 29 34 43 29 34 43 29 34 43 29 34 43 29 34 43 29 34 43 29 34 43 29 34 43 29 34 43
29 34 43 29 34 43 29 34 43 29 34 43 29 34 43 29 34 43 29 34 43 29 34 43 29 34 43 29 34 43 29 34 43 29 34 43 29 34 43 29 34 43 29 34 43 193 132 89 193 132 89 193 132 89 193 132 89 193 132 89 193 132 89 193 132 89 193 132 89 193 132 89 193 132 89 193 132 89 35 26 24 35 26 24 35 26 24 193 132 89 193 132 89 193 132 89 193 132 89 193 132 89 193 132 89 193 132 89 35 26 24 35 26 24 35 26 24 193 132 89 193 132 89 193 132 89 193 132 89 193 132 89 193 132 89 193 132 89 193 132 89 193 132 89 193 132 89 193 132 89 29 34 43 29 34 43 29 34 43 29 34 43 29 34 43 29 34 43 29 34 43 29 34 43 29 34 43 29 34 43 29 34 43 29 34 43 29 34 43 29 34 43
29 34 43 29 34 43 29 34 43 29 34 43 29 34 43 29 34 43 29 34 43 29 34 43 29 34 43 29 34 43 29 34 43 29 34 43 29 34 43 29 34 43 29 34 43 193 132 89 193 132 89 193 132 89 193 132 89 193 132 89 193 132 89 193 132 89 193 132 89 193 132 89 193 132 89 193 132 89 35 26 24 35 26 24 35 26 24 193 132 89 193 132 89 193 132 89 193 132 89 193 132 89 193 132 89 193 132 89 35 26 24 35 26 24 35 26 24 193 132 89 193 132 89 193 132 89 193 132 89 193 132 89 193 132 89 193 132 89 193 132 89 193 132 89 193 132 89 193 132 89 29 34 43 29 34 43 29 34 43 29 34 43 29 34 43 29 34 43 29 34 43 29 34 43 29 34 43 29 34 43 29 34 43 29 34 43 29 34 43 29 34 43
29 34 43 29 34 43 29 34 43 29 34 43 29 34 43 29 34 43 29 34 43 29 34 43 29 34 43 29 34 43 29 34 43 29 34 43 29 34 43 29 34 43 29 34 43 193 132 89 193 132 89 193 132 89 193 132 89 193 132 89 193 132 89 193 132 89 193 132 89 193 132 89 193 132 89 193 132 89 193 132 89 193 132 89 193 132 89 193 132 89 193 132 89 193 132 89 193 132 89 193 132 89 193 132 89 193 132 89 193 132 89 193 132 89 193 132 89 193 132 89 193 132 89 193 132 89 193 132 89 193 132 89 193 132 89 193 132 89 193 132 89 193 132 89 193 132 89 193 132 89 29 34 43 29 34 43 29 34 43 29 34 43 29 34 43 29 34 43 29 34 43 29 34 43 29 34 43 29 34 43 29 34 43 29 34 43 29 34 43 29 34 43
29 34 43 29 34 43 29 34 43 29 34 43 29 34 43 29 34 43 29 34 43 29 34 43 29 34 43 29 34 43 29 34 43 29 34 43 29 34 43 29 34 43 193 132 89 193 132 89 193 132 89 193 132 89 193 132 89 193 132 89 193 132 89 193 132 89 193 132 89 193 132 89 193 132 89 193 132 89 193 132 89 193 132 89 193 132 89 193 132 89 193 132 89 193 132 89 193 132 89 193 132 89 193 132 89 193 132 89 193 132 89 193 132 89 193 132 89 193 132 89 193 132 89 193 132 89 193 132 89 193 132 89 193 132 89 193 132 89 193 132 89 193 132 89 193 132 89 193 132 89 193 132 89 29 34 43 29 34 43 29 34 43 29 34 43 29 34 43 29 34 43 29 34 43 29 34 43 29 34 43 29 34 43 29 34 43 29 34 43 29 34 43
29 34 43 29 34 43 29 34 43 29 34 43 29 34 43 29 34 43 29 34 43 29 34 43 29 34 43 29 34 43 29 34 43 29 34 43 29 34 43 29 34 43 29 34 43 193 132 89 193 132 89 193 132 89 193 132 89 193 132 89 193 132 89 193 132 89 193 132 89 193 132 89 193 132 89 193 132 89 193 132 89 193 132 89 193 132 89 193 132 89 193 132 89 193 132 89 193 132 89 193 132 89 193 132 89 193 132 89 193 132 89 193 132 89 193 132 89 193 132 89 193 132 89 193 132 89 193 132 89 193 132 89 193 132 89 193 132 89 193 132 89 193 132 89 193 132 89 193 132 89 29 34 43 29 34 43 29 34 43 29 34 43 29 34 43 29 34 43 29 34 43 29 34 43 29 34 43 29 34 43 29 34 43 29 34 43 29 34 43 29 34 43
29 34 43 29 34 43 29 34 43 29 34 43 29 34 43 29 34 43 29 34 43 29 34 43 29 34 43 29 34 43 29 34 43 29 34 43 29 34 43 29 34 43 29 34 43 193 132 89 193 132 89 193 132 89 193 132 89 193 132 89 193 132 89 193 132 89 193 132 89 193 132 89 193 132 89 193 132 89 193 132 89 193 132 89 193 132 89 193 132 89 193 132 89 193 132 89 193 132 89 193 132 89 193 132 89 193 132 89 193 132 89 193 132 89 193 132 89 193 132 89 193 132 89 193 132 89 193 132 89 193 132 89 193 132 89 193 132 89 193 132 89 193 132 89 193 132 89 193 132 89 29 34 43 29 34 43 29 34 43 29 34 43 29 34 43 29 34 43 29 34 43 29 34 43 29 34 43 29 34 43 29 34 43 29 34 43 29 34 43 29 34 43
29 34 43 29 34 43 29 34 43 29 34 43 29 34 43 29 34 43 29 34 43 29 34 43 29 34 43 29 34 43 29 34 43 29 34 43 29 34 43 29 34 43 29 34 43 193 132 89 193 132 89 193 132 89 193 132 89 193 132 89 193 132 89 193 132 89 193 132 89 193 132 89 193 132 89 193 132 89 193 132 89 193 132 89 193 132 89 193 132 89 193 132 89 193 132 89 193 132 89 193 132 89 193 132 89 193 132 89 193 132 89 193 132 89 193 132 89 193 132 89 193 132 89 193 132 89 193 132 89 193 132 89 193 132 89 193 132 89 193 132 89 193 132 89 193 132 89 193 132 89 29 34 43 29 34 43 29 34 43 29 34 43 29 34 43 29 34 43 29 34 43 29 34 43 29 34 43 29 34 43 29 34 43 29 34 43 29 34 43 29 34 43
29 34 43 29 34 43 29 34 43 29 34 43 29 34 43 29 34 43 29 34 43 29 34 43 29 34 43 29 34 43 29 34 43 29 34 43 29 34 43 29 34 43 29 34 43 193 132 89 193 132 89 193 132 89 193 132 89 193 132 89 193 132 89 193 132 89 193 132 89 193 132 89 193 132 89 193 132 89 193 132 89 193 132 89 193 132 89 193 132 89 193 132 89 193 132 89 193 132 89 193 132 89 193 132 89 193 132 89 193 132 89 193 132 89 193 132 89 193 132 89 193 132 89 193 132 89 193 132 89 193 132 89 193 132 89 193 132 89 193 132 89 193 132 89 193 132 89 193 132 89 29 34 43 29 34 43 29 34 43 29 34 43 29 34 43 29 34 43 29 34 43 29 34 43 29 34 43 29 34 43 29 34 43 29 34 43 29 34 43 29 34 43
29 34 43 29 34 43 29 34 43 29 34 43 29 34 43 29 34 43 29 34 43 29 34 43 29 34 43 29 34 43 29 34 43 29 34 43 29 34 43 29 34 43 29 34 43 29 34 43 193 132 89 193 132 89 193 132 89 193 132 89 193 132 89 193 132 89 193 132 89 193 132 89 193 132 89 193 132 89 193 132 89 193 132 89 193 132 89 193 132 89 193 132 89 193 132 89 193 132 89 193 132 89 193 132 89 193 132 89 193 132 89 193 132 89 193 132 89 193 132 89 193 132 89 193 132 89 193 132 89 193 132 89 193 132 89 193 132 89 193 132 89 193 132 89 193 132 89 29 34 43 29 34 43 29 34 43 29 34 43 29 34 43 29 34 43 29 34 43 29 34 43 29 34 43 29 34 43 29 34 43 29 34 43 29 34 43 29 34 43 29 34 43
29 34 43 29 34 43 29 34 43 29 34 43 29 34 43 29 34 43 29 34 43 29 34 43 29 34 43 29 34 43 29 34 43 29 34 43 29 34 43 29 34 43 29 34 43 29 34 43 193 132 89 193 132 89 193 132 89 193 132 89 193 132 89 193 132 89 193 132 89 193 132 89 193 132 89 193 132 89 193 132 89 193 132 89 193 132 89 193 132 89 193 132 89 193 132 89 193 132 89 193 132 89 193 132 89 193 132 89 193 132 89 193 132 89 193 132 89 193 132 89 193 132 89 193 132 89 193 132 89 193 132 89 193 132 89 193 132 89 193 132 89 193 132 89 193 132 89 29 34 43 29 34 43 29 34 43 29 34 43 29 34 43 29 34 43 29 34 43 29 34 43 29 34 43 29 34 43 29 34 43 29 34 43 29 34 43 29 34 43 29 34 43
29 34 43 29 34 43 29 34 43 29 34 43 29 34 43 29 34 43 29 34 43 29 34 43 29 34 43 29 34 43 29 34 43 29 34 43 29 34 43 29 34 43 29 34 43 29 34 43 29 34 43 193 132 89 193 132 89 193 132 89 193 132 89 193 132 89 193 132 89 193 132 89 193 132 89 193 132 89 193 132 89 193 132 89 193 132 89 193 132 89 193 132 89 193 132 89 193 132 89 193 132 89 193 132 89 193 132 89 193 132 89 193 132 89 193 132 89 193 132 89 193 132 89 193 132 89 193 132 89 193 132 89 193 132 89 193 132 89 193 132 89 193 132 89 29 34 43 29 34 43 29 34 43 29 34 43 29 34 43 29 34 43 29 34 43 29 34 43 29 34 43 29 34 43 29 34 43 29 34 43 29 34 43 29 34 43 29 34 43 29 34 43
29 34 43 29 34 43 29 34 43 29 34 43 29 34 43 29 34 43 29 34 43 29 34 43 29 34 43 29 34 43 29 34 43 29 34 43 29 34 43 29 34 43 29 34 43 29 34 43 29 34 43 29 34 43 193 132 89 193 132 89 193 132 89 193 132 89 193 132 89 193 132 89 193 132 89 193 132 89 193 132 89 193 132 89 193 132 89 193 132 89 193 132 89 193 132 89 193 132 89 193 132 89 193 132 89 193 132 89 193 132 89 193 132 89 193 132 89 193 132 89 193 132 89 193 132 89 193 132 89 193 132 89 193 132 89 193 132 89 193 132 89 29 34 43 29 34 43 29 34 43 29 34 43 29 34 43 29 34 43 29 34 43 29 34 43 29 34 43 29 34 43 29 34 43 29 34 43 29 34 43 29 34 43 29 34 43 29 34 43 29 34 43
29 34 43 29 34 43 29 34 43 29 34 43 29 34 43 29 34 43 29 34 43 29 34 43 29 34 43 29 34 43 29 34 43 29 34 43 29 34 43 29 34 43 29 34 43 29 34 43 29 34 43 29 34 43 29 34 43 193 132 89 193 132 89 193 132 89 193 132 89 193 132 89 193 132 89 193 132 89 193 132 89 193 132 89 193 132 89 193 132 89 193 132 89 193 132 89 193 132 89 193 132 89 193 132 89 193 132 89 193 132 89 193 132 89 193 132 89 193 132 89 193 132 89 193 132 89 193 132 89 193 132 89 193 132 89 193 132 89 29 34 43 29 34 43 29 34 43 29 34 43 29 34 43 29 34 43 29 34 43 29 34 43 29 34 43 29 34 43 29 34 43 29 34 43 29 34 43 29 34 43 29 34 43 29 34 43 29 34 43 29 34 43
29 34 43 29 34 43 29 34 43 29 34 43 29 34 43 29 34 43 29 34 43 29 34 43 29 34 43 29 34 43 29 34 43 29 34 43 29 34 43 29 34 43 29 34 43 29 34 43 29 34 43 29 34 43 29 34 43 29 34 43 193 132 89 193 132 89 193 132 89 193 132 89 193 132 89 193 132 89 193 132 89 193 132 89 193 132 89 193 132 89 193 132 89 193 132 89 193 132 89 193 132 89 193 132 89 193 132 89 193 132 89 193 132 89 193 132 89 193 132 89 193 132 89 193 132 89 193 132 89 193 132 89 193 132 89 29 34 43 29 34 43 29 34 43 29 34 43 29 34 43 29 34 43 29 34 43 29 34 43 29 34 43 29 34 43 29 34 43 29 34 43 29 34 43 29 34 43 29 34 43 29 34 43 29 34 43 29 34 43 29 34 43
29 34 43 29 34 43 29 34 43 29 34 43 29 34 43 29 34 43 29 34 43 29 34 43 29 34 43 29 34 43 29 34 43 29 34 43 29 34 43 29 34 43 29 34 43 29 34 43 29 34 43 29 34 43 29 34 43 29 34 43 29 34 43 193 132 89 193 132 89 193 132 89 193 132 89 193 132 89 193 132 89 193 132 89 193 132 89 193 132 89 193 132 89 193 132 89 186 124 82 193 132 89 193 132 89 193 132 89 193 132 89 193 132 89 193 132 89 193 132 89 193 132 89 193 132 89 193 132 89 193 132 89 29 34 43 29 34 43 29 34 43 29 34 43 29 34 43 29 34 43 29 34 43 29 34 43 29 34 43 29 34 43 29 34 43 29 34 43 29 34 43 29 34 43 29 34 43 29 34 43 29 34 43 29 34 43 29 34 43 29 34 43
29 34 43 29 34 43 29 34 43 29 34 43 29 34 43 29 34 43 29 34 43 29 34 43 29 34 43 29 34 43 29 34 43 29 34 43 29 34 43 29 34 43 29 34 43 29 34 43 29 34 43 29 34 43 29 34 43 29 34 43 29 34 43 29 34 43 29 34 43 193 132 89 193 132 89 186 124 82 186 124 82 186 124 82 186 124 82 186 124 82 186 124 82 186 124 82 186 124 82 186 124 82 186 124 82 186 124 82 186 124 82 186 124 82 186 124 82 186 124 82 193 132 89 193 132 89 29 34 43 29 34 43 29 34 43 29 34 43 29 34 43 29 34 43 29 34 43 29 34 43 29 34 43 29 34 43 29 34 43 29 34 43 29 34 43 29 34 43 29 34 43 29 34 43 29 34 43 29 34 43 29 34 43 29 34 43 29 34 43 29 34 43
29 34 43 29 34 43 29 34 43 29 34 43 29 34 43 29 34 43 29 34 43 29 34 43 29 34 43 29 34 43 29 34 43 29 34 43 29 34 43 29 34 43 29 34 43 29 34 43 29 34 43 29 34 43 29 34 43 29 34 43 29 34 43 186 124 82 186 124 82 186 124 82 186 124 82 186 124 82 186 124 82 186 124 82 186 124 82 186 124 82 186 124 82 186 124 82 186 124 82 186 124 82 186 124 82 186 124 82 186 124 82 186 124 82 186 124 82 186 124 82 186 124 82 186 124 82 186 124 82 186 124 82 29 34 43 29 34 43 29 34 43 29 34 43 29 34 43 29 34 43 29 34 43 29 34 43 29 34 43 29 34 43 29 34 43 29 34 43 29 34 43 29 34 43 29 34 43 29 34 43 29 34 43 29 34 43 29 34 43 29 34 43
29 34 43 29 34 43 29 34 43 29 34 43 29 34 43 29 34 43 29 34 43 29 34 43 29 34 43 29 34 43 29 34 43 29 34 43 29 34 43 29 34 43 29 34 43 29 34 43 29 34 43 29 34 43 29 34 43 186 124 82 186 124 82 186 124 82 186 124 82 186 124 82 186 124 82 186 124 82 186 124 82 186 124 82 186 124 82 186 124 82 186 124 82 186 124 82 186 124 82 186 124 82 186 124 82 186 124 82 186 124 82 186 124 82 186 124 82 186 124 82 186 124 82 186 124 82 186 124 82 186 124 82 186 124 82 186 124 82 29 34 43 29 34 43 29 34 43 29 34 43 29 34 43 29 34 43 29 34 43 29 34 43 29 34 43 29 34 43 29 34 43 29 34 43 29 34 43 29 34 43 29 34 43 29 34 43 29 34 43 29 34 43
29 34 43 29 34 43 29 34 43 29 34 43 29 34 43 29 34 43 29 34 43 29 34 43 29 34 43 29 34 43 29 34 43 29 34 43 29 34 43 29 34 43 29 34 43 29 34 43 29 34 43 29 34 43 186 124 82 186 124 82 186 124 82 186 124 82 186 124 82 186 124 82 186 124 82 186 124 82 186 124 82 186 124 82 186 124 82 186 124 82 186 124 82 186 124 82 186 124 82 186 124 82 186 124 82 186 124 82 186 124 82 186 124 82 186 124 82 186 124 82 186 124 82 186 124 82 186 124 82 186 124 82 186 124 82 186 124 82 186 124 82 29 34 43 29 34 43 29 34 43 29 34 43 29 34 43 29 34 43 29 34 43 29 34 43 29 34 43 29 34 43 29 34 43 29 34 43 29 34 43 29 34 43 29 34 43 29 34 43 29 34 43
29 34 43 29 34 43 29 34 43 29 34 43 29 34 43 29 34 43 29 34 43 29 34 43 29 34 43 29 34 43 29 34 43 29 34 43 29 34 43 29 34 43 29 34 43 29 34 43 186 124 82 186 124 82 186 124 82 186 124 82 186 124 82 186 124 82 186 124 82 186 124 82 186 124 82 186 124 82 186 124 82 186 124 82 186 124 82 186 124 82 186 124 82 186 124 82 186 124 82 186 124 82 186 124 82 186 124 82 186 124 82 186 124 82 186 124 82 186 124 82 186 124 82 186 124 82 186 124 82 186 124 82 186 124 82 186 124 82 186 124 82 186 124 82 186 124 82 29 34 43 29 34 43 29 34 43 29 34 43 29 34 43 29 34 43 29 34 43 29 34 43 29 34 43 29 34 43 29 34 43 29 34 43 29 34 43 29 34 43 29 34 43
29 34 43 29 34 43 29 34 43 29 34 43 29 34 43 29 34 43 29 34 43 29 34 43 29 34 43 29 34 43 29 34 43 29 34 43 29 34 43 29 34 43 29 34 43 186 124 82 186 124 82 186 124 82 186 124 82 186 124 82 186 124 82 186 124 82 186 124 82 186 124 82 186 124 82 186 124 82 186 124 82 186 124 82 186 124 82 186 124 82 186 124 82 186 124 82 186 124 82 186 124 82 186 124 82 186 124 82 186 124 82 186 124 82 186 124 82 186 124 82 186 124 82 186 124 82 186 124 82 186 124 82 186 124 82 186 124 82 186 124 82 186 124 82 186 124 82 186 124 82 29 34 43 29 34 43 29 34 43 29 34 43 29 34 43 29 34 43 29 34 43 29 34 43 29 34 43 29 34 43 29 34 43 29 34 43 29 34 43 29 34 43
29 34 43 29 34 43 29 34 43 29 34 43 29 34 43 29 34 43 29 34 43 29 34 43 29 34 43 29 34 43 29 34 43 29 34 43 29 34 43 29 34 43 186 124 82 186 124 82 186 124 82 186 124 82 186 124 82 186 124 82 186 124 82 186 124 82 186 124 82 186 124 82 186 124 82 186 124 82 186 124 82 186 124 82 186 124 82 186 124 82 186 124 82 186 124 82 186 124 82 186 124 82 186 124 82 186 124 82 186 124 82 186 124 82 186 124 82 186 124 82 186 124 82 186 124 82 186 124 82 186 124 82 186 124 82 186 124 82 186 124 82 186 124 82 186 124 82 186 124 82 186 124 82 29 34 43 29 34 43 29 34 43 29 34 43 29 34 43 29 34 43 29 34 43 29 34 43 29 34 43 29 34 43 29 34 43 29 34 43 29 34 43
29 34 43 29 34 43 29 34 43 29 34 43 29 34 43 29 34 43 29 34 43 29 34 43 29 34 43 29 34 43 29 34 43 29 34 43 29 34 43 29 34 43 186 124 82 186 124 82 186 124 82 186 124 82 186 124 82 186 124 82 186 124 82 186 124 82 186 124 82 186 124 82 186 124 82 186 124 82 186 124 82 186 124 82 186 124 82 186 124 82 186 124 82 186 124 82 186 124 82 186 124 82 186 124 82 186 124 82 186 124 82 186 124 82 186 124 82 186 124 82 186 124 82 186 124 82 186 124 82 186 124 82 186 124 82 186 124 82 186 124 82 186 124 82 186 124 82 186 124 82 186 124 82 29 34 43 29 34 43 29 34 43 29 34 43 29 34 43 29 34 43 29 34 43 29 34 43 29 34 43 29 34 43 29 34 43 29 34 43 29 34 43
29 34 43 29 34 43 29 34 43 29 34 43 29 34 43 29 34 43 29 34 43 29 34 43 29 34 43 29 34 43 29 34 43 29 34 43 29 34 43 186 124 82 186 124 82 186 124 82 186 124 82 186 124 82 186 124 82 186 124 82 186 124 82 186 124 82 186 124 82 186 124 82 186 124 82 186 124 82 186 124 82 186 124 82 186 124 82 186 124 82 186 124 82 186 124 82 186 124 82 186 124 82 186 124 82 186 124 82 186 124 82 186 124 82 186 124 82 186 124 82 186 124 82 186 124 82 186 124 82 186 124 82 186 124 82 186 124 82 186 124 82 186 124 82 186 124 82 186 124 82 186 124 82 186 124 82 29 34 43 29 34 43 29 34 43 29 34 43 29 34 43 29 34 43 29 34 43 29 34 43 29 34 43 29 34 43 29 34 43 29 34 43
29 34 43 29 34 43 29 34 43 29 34 43 29 34 43 29 34 43 29 34 43 29 34 43 29 34 43 29 34 43 29 34 43 29 34 43 29 34 43 186 124 82 186 124 82 186 124 82 186 124 82 186 124 82 186 124 82 186 124 82 186 124 82 186 124 82 186 124 82 186 124 82 186 124 82 186 124 82 186 124 82 186 124 82 186 124 82 186 124 82 186 124 82 186 124 82 186 124 82 186 124 82 186 124 82 186 124 82 186 124 82 186 124 82 186 124 82 186 124 82 186 124 82 186 124 82 186 124 82 186 124 82 186 124 82 186 124 82 186 124 82 186 124 82 186 124 82 186 124 82 186 124 82 186 124 82 29 34 43 29 34 43 29 34 43 29 34 43 29 34 43 29 34 43 29 34 43 29 34 43 29 34 43 29 34 43 29 34 43 29 34 43
29 34 43 29 34 43 29 34 43 29 34 43 29 34 43 29 34 43 29 34 43 29 34 43 29 34 43 29 34 43 29 34 43 29 34 43 29 34 43 186 124 82 186 124 82 186 124 82 186 124 82 186 124 82 186 124 82 186 124 82 186 124 82 186 124 82 186 124 82 186 124 82 186 124 82 186 124 82 186 124 82 186 124 82 186 124 82 186 124 82 186 124 82 186 124 82 186 124 82 186 124 82 186 124 82 186 124 82 186 124 82 186 124 82 186 124 82 186 124 82 186 124 82 186 124 82 186 124 82 186 124 82 186 124 82 186 124 82 186 124 82 186 124 82 186 124 82 186 124 82 186 124 82 186 124 82 29 34 43 29 34 43 29 34 43 29 34 43 29 34 43 29 34 43 29 34 43 29 34 43 29 34 43 29 34 43 29 34 43 29 34 43
29 34 43 29 34 43 29 34 43 29 34 43 29 34 43 29 34 43 29 34 43 29 34 43 29 34 43 29 34 43 29 34 43 29 34 43 186 124 82 186 124 82 186 124 82 186 124 82 186 124 82 186 124 82 186 124 82 186 124 82 186 124 82 186 124 82 186 124 82 186 124 82 186 124 82 186 124 82 186 124 82 186 124 82 186 124 82 186 124 82 186 124 82 186 124 82 186 124 82 186 124 82 186 124 82 186 124 82 186 124 82 186 124 82 186 124 82 186 124 82 186 124 82 186 124 82 186 124 82 186 124 82 186 124 82 186 124 82 186 124 82 186 124 82 186 124 82 186 124 82 186 124 82 186 124 82 186 124 82 29 34 43 29 34 43 29 34 43 29 34 43 29 34 43 29 34 43 29 34 43 29 34 43 29 34 43 29 34 43 29 34 43
29 34 43 29 34 43 29 34 43 29 34 43 29 34 43 29 34 43 29 34 43 29 34 43 29 34 43 29 34 43 29 34 43 29 34 43 29 34 43 186 124 82 186 124 82 186 124 82 186 124 82 186 124 82 186 124 82 186 124 82 186 124 82 186 124 82 186 124 82 186 124 82 186 124 82 186 124 82 186 124 82 186 124 82 186 124 82 186 124 82 186 124 82 186 124 82 186 124 82 186 124 82 186 124 82 186 124 82 186 124 82 186 124 82 186 124 82 186 124 82 186 124 82 186 124 82 186 124 82 186 124 82 186 124 82 186 124 82 186 124 82 186 124 82 186 124 82 186 124 82 186 124 82 186 124 82 29 34 43 29 34 43 29 34 43 29 34 43 29 34 43 29 34 43 29 34 43 29 34 43 29 34 43 29 34 43 29 34 43 29 34 43
29 34 43 29 34 43 29 34 43 29 34 43 29 34 43 29 34 43 29 34 43 29 34 43 29 34 43 29 34 43 29 34 43 29 34 43 29 34 43 186 124 82 186 124 82 186 124 82 186 124 82 186 124 82 186 124 82 186 124 82 186 124 82 186 124 82 186 124 82 186 124 82 186 124 82 186 124 82 186 124 82 186 124 82 186 124 82 186 124 82 186 124 82 186 124 82 186 124 82 186 124 82 186 124 82 186 124 82 186 124 82 186 124 82 186 124 82 186 124 82 186 124 82 186 124 82 186 124 82 186 124 82 186 124 82 186 124 82 186 124 82 186 124 82 186 124 82 186 124 82 186 124 82 186 124 82 29 34 43 29 34 43 29 34 43 29 34 43 29 34 43 29 34 43 29 34 43 29 34 43 29 34 43 29 34 43 29 34 43 29 34 43
29 34 43 29 34 43 29 34 43 29 34 43 29 34 43 29 34 43 29 34 43 29 34 43 29 34 43 29 34 43 29 34 43 29 34 43 29 34 43 186 124 82 186 124 82 186 124 82 186 124 82 186 124 82 186 124 82 186 124 82 186 124 82 186 124 82 186 124 82 186 124 82 186 124 82 186 124 82 186 124 82 186 124 82 186 124 82 186 124 82 186 124 82 186 124 82 186 124 82 186 124 82 186 124 82 186 124 82 186 124 82 186 124 82 186 124 82 186 124 82 186 124 82 186 124 82 186 124 82 186 124 82 186 124 82 186 124 82 186 124 82 186 124 82 186 124 82 186 124 82 186 124 82 186 124 82 29 34 43 29 34 43 29 34 43 29 34 43 29 34 43 29 34 43 29 34 43 29 34 43 29 34 43 29 34 43 29 34 43 29 34 43
29 34 43 29 34 43 29 34 43 29 34 43 29 34 43 29 34 43 29 34 43 29 34 43 29 34 43 29 34 43 29 34 43 29 34 43 29 34 43 29 34 43 186 124 82 186 124 82 186 124 82 186 124 82 186 124 82 186 124 82 186 124 82 186 124 82 186 124 82 186 124 82 186 124 82 186 124 82 186 124 82 186 124 82 186 124 82 186 124 82 186 124 82 186 124 82 186 124 82 186 124 82 186 124 82 186 124 82 186 124 82 186 124 82 186 124 82 186 124 82 186 124 82 186 124 82 186 124 82 186 124 82 186 124 82 186 124 82 186 124 82 186 124 82 186 124 82 186 124 82 186 124 82 29 34 43 29 34 43 29 34 43 29 34 43 29 34 43 29 34 43 29 34 43 29 34 43 29 34 43 29 34 43 29 34 43 29 34 43 29 34 43
29 34 43 29 34 43 29 34 43 29 34 43 29 34 43 29 34 43 29 34 43 29 34 43 29 34 43 29 34 43 29 34 43 29 34 43 29 34 43 29 34 43 186 124 82 186 124 82 186 124 82 186 124 82 186 124 82 186 124 82 186 124 82 186 124 82 186 124 82 186 124 82 186 124 82 186 124 82 186 124 82 186 124 82 186 124 82 186 124 82 186 124 82 186 124 82 186 124 82 186 124 82 186 124 82 186 124 82 186 124 82 186 124 82 186 124 82 186 124 82 186 124 82 186 124 82 186 124 82 186 124 82 186 124 82 186 124 82 186 124 82 186 124 82 186 124 82 186 124 82 186 124 82 29 34 43 29 34 43 29 34 43 29 34 43 29 34 43 29 34 43 29 34 43 29 34 43 29 34 43 29 34 43 29 34 43 29 34 43 29 34 43
29 34 43 29 34 43 29 34 43 29 34 43 29 34 43 29 34 43 29 34 43 29 34 43 29 34 43 29 34 43 29 34 43 29 34 43 29 34 43 29 34 43 29 34 43 186 124 82 186 124 82 186 124 82 186 124 82 186 124 82 186 124 82 186 124 82 186 124 82 186 124 82 186 124 82 186 124 82 186 124 82 186 124 82 186 124 82 186 124 82 186 124 82 186 124 82 186 124 82 186 124 82 186 124 82 186 124 82 186 124 82 186 124 82 186 124 82 186 124 82 186 124 82 186 124 82 186 124 82 186 124 82 186 124 82 186 124 82 186 124 82 186 124 82 186 124 82 186 124 82 29 34 43 29 34 43 29 34 43 29 34 43 29 34 43 29 34 43 29 34 43 29 34 43 29 34 43 29 34 43 29 34 43 29 34 43 29 34 43 29 34 43
29 34 43 29 34 43 29 34 43 29 34 43 29 34 43 29 34 43 29 34 43 29 34 43 29 34 43 29 34 43 29 34 43 29 34 43 29 34 43 29 34 43 29 34 43 29 34 43 186 124 82 186 124 82 186 124 82 186 124 82 186 124 82 186 124 82 186 124 82 186 124 82 186 124 82 186 124 82 186 124 82 186 124 82 186 124 82 186 124 82 186 124 82 186 124 82 186 124 82 186 124 82 186 124 82 186 124 82 186 124 82 186 124 82 186 124 82 186 124 82 186 124 82 186 124 82 186 124 82 186 124 82 186 124 82 186 124 82 186 124 82 186 124 82 186 124 82 29 34 43 29 34 43 29 34 43 29 34 43 29 34 43 29 34 43 29 34 43 29 34 43 29 34 43 29 34 43 29 34 43 29 34 43 29 34 43 29 34 43 29 34 43
29 34 43 29 34 43 29 34 43 29 34 43 29 34 43 29 34 43 29 34 43 29 34 43 29 34 43 29 34 43 29 34 43 29 34 43 29 34 43 29 34 43 29 34 43 29 34 43 29 34 43 29 34 43 186 124 82 186 124 82 186 124 82 186 124 82 186 124 82 186 124 82 186 124 82 186 124 82 186 124 82 186 124 82 186 124 82 186 124 82 186 124 82 186 124 82 186 124 82 186 124 82 186 124 82 186 124 82 186 124 82 186 124 82 186 124 82 186 124 82 186 124 82 186 124 82 186 124 82 186 124 82 186 124 82 186 124 82 186 124 82 29 34 43 29 34 43 29 34 43 29 34 43 29 34 43 29 34 43 29 34 43 29 34 43 29 34 43 29 34 43 29 34 43 29 34 43 29 34 43 29 34 43 29 34 43 29 34 43 29 34 43
29 34 43 29 34 43 29 34 43 29 34 43 29 34 43 29 34 43 29 34 43 29 34 43 29 34 43 29 34 43 29 34 43 29 34 43 29 34 43 29 34 43 29 34 43 29 34 43 29 34 43 29 34 43 29 34 43 186 124 82 186 124 82 186 124 82 186 124 82 186 124 82 186 124 82 186 124 82 186 124 82 186 124 82 186 124 82 186 124 82 186 124 82 186 124 82 186 124 82 186 124 82 186 124 82 186 124 82 186 124 82 186 124 82 186 124 82 186 124 82 186 124 82 186 124 82 186 124 82 186 124 82 186 124 82 186 124 82 29 34 43 29 34 43 29 34 43 29 34 43 29 34 43 29 34 43 29 34 43 29 34 43 29 34 43 29 34 43 29 34 43 29 34 43 29 34 43 29 34 43 29 34 43 29 34 43 29 34 43 29 34 43
29 34 43 29 34 43 29 34 43 29 34 43 29 34 43 29 34 43 29 34 43 29 34 43 29 34 43 29 34 43 29 34 43 29 34 43 29 34 43 29 34 43 29 34 43 29 34 43 29 34 43 29 34 43 29 34 43 29 34 43 29 34 43 186 124 82 186 124 82 186 124 82 186 124 82 186 124 82 186 124 82 186 124 82 186 124 82 186 124 82 186 124 82 186 124 82 186 124 82 186 124 82 186 124 82 186 124 82 186 124 82 186 124 82 186 124 82 186 124 82 186 124 82 186 124 82 186 124 82 186 124 82 29 34 43 29 34 43 29 34 43 29 34 43 29 34 43 29 34 43 29 34 43 29 34 43 29 34 43 29 34 43 29 34 43 29 34 43 29 34 43 29 34 43 29 34 43 29 34 43 29 34 43 29 34 43 29 34 43 29 34 43
29 34 43 29 34 43 29 34 43 29 34 43 29 34 43 29 34 43 29 34 43 29 34 43 29 34 43 29 34 43 29 34 43 29 34 43 29 34 43 29 34 43 29 34 43 29 34 43 29 34 43 29 34 43 29 34 43 29 34 43 29 34 43 29 34 43 29 34 43 29 34 43 29 34 43 186 124 82 186 124 82 186 124 82 186 124 82 186 124 82 186 124 82 186 124 82 186 124 82 186 124 82 186 124 82 186 124 82 186 124 82 186 124 82 186 124 82 186 124 82 29 34 43 29 34 43 29 34 43 29 34 43 29 34 43 29 34 43 29 34 43 29 34 43 29 34 43 29 34 43 29 34 43 29 34 43 29 34 43 29 34 43 29 34 43 29 34 43 29 34 43 29 34 43 29 34 43 29 34 43 29 34 43 29 34 43 29 34 43 29 34 43
29 34 43 29 34 43 29 34 43 29 34 43 29 34 43 29 34 43 29 34 43 29 34 43 29 34 43 29 34 43 29 34 43 29 34 43 29 34 43 29 34 43 29 34 43 29 34 43 29 34 43 29 34 43 29 34 43 29 34 43 29 34 43 29 34 43 29 34 43 29 34 43 29 34 43 29 34 43 29 34 43 29 34 43 29 34 43 29 34 43 29 34 43 29 34 43 186 124 82 29 34 43 29 34 43 29 34 43 29 34 43 29 34 43 29 34 43 29 34 43 29 34 43 29 34 43 29 34 43 29 34 43 29 34 43 29 34 43 29 34 43 29 34 43 29 34 43 29 34 43 29 34 43 29 34 43 29 34 43 29 34 43 29 34 43 29 34 43 29 34 43 29 34 43 29 34 43 29 34 43 29 34 43 29 34 43 29 34 43 29 34 43
29 34 43 29 34 43 29 34 43 29 34 43 29 34 43 29 34 43 29 34 43 29 34 43 29 34 43 29 34 43 29 34 43 29 34 43 29 34 43 29 34 43 29 34 43 29 34 43 29 34 43 29 34 43 29 34 43 29 34 43 29 34 43 29 34 43 29 34 43 29 34 43 29 34 43 29 34 43 29 34 43 29 34 43 29 34 43 29 34 43 29 34 43 29 34 43 29 34 43 29 34 43 29 34 43 29 34 43 29 34 43 29 34 43 29 34 43 29 34 43 29 34 43 29 34 43 29 34 43 29 34 43 29 34 43 29 34 43 29 34 43 29 34 43 29 34 43 29 34 43 29 34 43 29 34 43 29 34 43 29 34 43 29 34 43 29 34 43 29 34 43 29 34 43 29 34 43 29 34 43 29 34 43 29 34 43 29 34 43 29 34 43
29 34 43 29 34 43 29 34 43 29 34 43 29 34 43 29 34 43 29 34 43 29 34 43 29 34 43 29 34 43 29 34 43 29 34 43 29 34 43 29 34 43 29 34 43 29 34 43 29 34 43 29 34 43 29 34 43 29 34 43 29 34 43 29 34 43 29 34 43 29 34 43 29 34 43 29 34 43 29 34 43 29 34 43 29 34 43 29 34 43 29 34 43 29 34 43 29 34 43 29 34 43 29 34 43 29 34 43 29 34 43 29 34 43 29 34 43 29 34 43 29 34 43 29 34 43 29 34 43 29 34 43 29 34 43 29 34 43 29 34 43 29 34 43 29 34 43 29 34 43 29 34 43 29 34 43 29 34 43 29 34 43 29 34 43 29 34 43 29 34 43 29 34 43 29 34 43 29 34 43 29 34 43 29 34 43 29 34 43 29 34 43
29 34 43 29 34 43 29 34 43 29 34 43 29 34 43 29 34 43 29 34 43 29 34 43 29 34 43 29 34 43 29 34 43 29 34 43 29 34 43 29 34 43 29 34 43 29 34 43 29 34 43 29 34 43 29 34 43 29 34 43 29 34 43 29 34 43 29 34 43 29 34 43 29 34 43 29 34 43 29 34 43 29 34 43 29 34 43 29 34 43 29 34 43 29 34 43 29 34 43 29 34 43 29 34 43 29 34 43 29 34 43 29 34 43 29 34 43 29 34 43 29 34 43 29 34 43 29 34 43 29 34 43 29 34 43 29 34 43 29 34 43 29 34 43 29 34 43 29 34 43 29 34 43 29 34 43 29 34 43 29 34 43 29 34 43 29 34 43 29 34 43 29 34 43 29 34 43 29 34 43 29 34 43 29 34 43 29 34 43 29 34 43
29 34 43 29 34 43 29 34 43 29 34 43 29 34 43 29 34 43 29 34 43 29 34 43 29 34 43 29 34 43 29 34 43 29 34 43 29 34 43 29 34 43 29 34 43 29 34 43 29 34 43 29 34 43 29 34 43 29 34 43 29 34 43 29 34 43 29 34 43 29 34 43 29 34 43 29 34 43 29 34 43 29 34 43 29 34 43 29 34 43 29 34 43 29 34 43 29 34 43 29 34 43 29 34 43 29 34 43 29 34 43 29 34 43 29 34 43 29 34 43 29 34 43 29 34 43 29 34 43 29 34 43 29 34 43 29 34 43 29 34 43 29 34 43 29 34 43 29 34 43 29 34 43 29 34 43 29 34 43 29 34 43 29 34 43 29 34 43 29 34 43 29 34 43 29 34 43 29 34 43 29 34 43 29 34 43 29 34 43 29 34 43
